X:1
T:Avrette lascivette
T:Avrette lascivette
T:Domenico Obizzi
T:Arietta
T:Source : Madrigali et arie a voce sola---Libro I ---Venetia---A.Vincenti---1627. Editor : André Vierendeels (26/02/16).
T:Notes : Original clefs : C1, F4 Editorial accidentals above the staff Notation in original print: "Alfabeto d'ariette per la Chitarra alla Spagnola", realised by the editor Dotted brackets indicate black notes  
T:©
T:©
T:©
C:Domenico Obizzi
Z:©
%%score 1 { ( 2 3 ) | 4 }
L:1/8
Q:1/4=95
M:3/2
K:C
V:1 treble nm="Soprano" snm="S"
V:2 treble nm="MusicXML Part"
V:3 treble 
V:4 bass 
V:1
 z8 d2 e2 | c4 A4 d2 c2 | B4 G4 c2 B2 | A2 B2 c2 d2 B4 | c8 e2 d2 | c2 B2 c2 A2 d2 c2 | %6
w: A- *|vret- te la- sci-|vet- te, ch'al crin|d'o- ro'er- ra- te'in- tor-|no, fol- li|se- * te _ se cre-|
w: Non scher-|za- te ma driz-|za- te, lun- ge|pur l'a- le vo- lan-|ti, son che|star- * ni, _ i leg-|
w: Spin- se'A-|mo- re il mio|co- re, a scher-|zar tra bion- di gi-|ri, ma scher-|zan- * do, _ e- vo-|
w: Se fi'ar-|di- te non fug-|gi- te, que ch'è'al-|trui gra- no- so'im- pac-|cio, for- ze|fi- * a _ ch'à voi|
"^#" B2 A2 G2 F2 E2 D2 | E2 D2 E2 ^F2 G2 A2 | B2 c2 A8 | G8 A2 G2 | ^F2 E2 F2 D2 G2 F2 | %11
w: de- * re _ far tra|quel _ dol- * ce _|sog- * gior-|no, fol- li|se- * te _ se cre-|
w: ga- * mi _ di be|mil- le co- * ri _|a- * man-|ti, son che|star- * ni, _ i leg-|
w: lan- * do _ fà che|pre- * so'an _ co'il _|so- * spi-|ro, mà scher-|zan- * do _ e- vo-|
w: fi- * a _ ca- ro|no- * do'e _ dol- *|ce _ lac-|cio, for- ze|fia- * a _ ch'à voi|
 E2 D2 E2 F2 G2 A2 | B2 A2 B2 c2 d4 | d4 d4 ^c4 | d8 A2 A2 | _B2 A2 G2 F2 G2 F2 | F2 E2 E8 | D12 |] %18
w: de- * te _ far tra|quel _ dol- * ce|sog- gi- or-|no far tra|quel _ dol- * ce _|sog- * gior-|no.|
w: ga- * mi _ di ben|mil- * le _ co-|ri'a- man- *|ti, di ben|mil- * le _ co- *|ri'a _ man-|ti.|
w: lan- * do _ fà che|pre- * so'an _ co'il|so- spi- *|ri, fà che|pre- * so'an- * co'il _|so- * spi-|ri.|
w: fi- * a _ ca- ro|no- * do'e _ dol-|ce lac- *|cio, ca- ro|no- * do'e _ dol- *|ce _ lac-|cio.|
V:2
 A8 G4 | c4 d4 A4 | B4 G4 c4 | c4 A4 B4 | G8 B4 | c4 A4 A4 | B4 G4 G4 | G4 B8 | G4 ^F8 | D8 E4 | %10
 A4 G8 | c4 A8 | d4 B4 A4 | B4 A8 | A8 A4 | _B4 F8 | _B4 A8 | [^FA]12 |] %18
V:3
 D8 D4 | E4 A4 ^F4 | D4 C4 E4 | A4 E4 D4 | E8 E4 | E4 D4 ^F4 | D4 B,4 D4 | E4 G8 | E4 D8 | %9
 B,8 A,4 | D4 D8 | G4 ^F8 | G4 G4 D4 | D4 E8 | ^F8 D4 | D4 D8 | D8 ^C4 | D12 |] %18
V:4
 D,4 ^F,4 G,4 | A,4 ^F,4 D,4 | G,4 E,4 C,4 | F,4 A,4 G,4 | C4 B,2 A,2 ^G,4 | A,4 ^F,4 D,4 | %6
 G,4 E,4 B,,4 | C,4 D,4 E,4 | C,4 D,8 | G,2 F,2 E,2 D,2 ^C,4 | D,4 B,,4 G,,4 | C,4 D,4 E,2 ^F,2 | %12
 G,4 E,4 ^F,4 | G,4 A,4 A,,4 | D,4 E,4 ^F,4 | G,4 A,4 _B,4 | G,4 A,8 | D,8 z4 |] %18

